X: 37200
T: Sir Ulick Burke
R: reel
M: 4/4
K: Eminor
|:e^def g2 fe|dedB A2GF|G2GE GABc|BAB^D EFGA|
B2 (3GAB A2A2|BABe d3d|e^def gagf|feed B4|
dcdf edef|gfed B2 AG|d2 c/d/e dBGB|AGFE E4:|
|:BEED EFGE|FEFD FGAF|G2d2 dedA|B2e2 e3f|
gfga (g/a/b) ag|fefg (f/g/a) gf|e^def gfga|BA ^G/A/B A4|
dBBe d2 d2|edef gfed|BABG dBeB|AGFE E4:|

